X:462
T:Lick the Ladle Sandy
R:Reel
B:The Athole Collection
M:C|
L:1/8
K:A
f|eAcA eAcA|=G/G/G =gB d2 d>f|eAcA eAcA|A/A/A ac e2 e>f:|
ef/g/ ae fdec|B/B/B =gB d2 d>f|ef/g/ ae fdec|e/e/e ac e2 e>f|
ef/g/ ae fdec|B=gdB =GABG|AB=cd ef=ge|fd=gB A2 A>f||

